!!!!SEGMENT: pl-sa--159-a-iv-9--001_luna-georgius--vesperae-ex-d-dixit-dominus.krn
!!!cenid: 17xx:459
!!!COM: Luna, Georgius
!!!COM-rism: pe41010079
!!!CDT:
!!!CNT:
!!!OTL: Vesperae ex D – Dixit Dominus
!!!PDT:
!!!AGN: Sacred; Vespers
!!!SMS-siglum: PL-SA
!!!SMS-shelfmark: 159/A IV 9
!!!NIFC-rismID: 1001070706
!!!URL-scan: http://bc.bdsandomierz.pl/dlibra/publication/1545/edition/1513/content
!!!ONB-nifc: UWAGA: części Vesperae: Dixit Dominus, Laudate pueri, Laetatus sum, Nisi Dominus,
!!!SMS-variant:
!!!SMS-altvar:
**kern	**dynam	**kern	**dynam	**kern	**dynam	**kern	**text	**kern	**text
*part5	*part5	*part4	*part4	*part3	*part3	*part2	*part2	*part1	*part1
*	*	*group2	*	*group2	*	*group1	*	*group1	*
*staff5	*	*staff4	*	*staff3	*	*staff2	*staff2	*staff1	*staff1
*I"Fondameto	*	*I"Violino Secundo	*	*I"Violino Primo	*	*I"Tenore	*	*I"Canto	*
*I'Fund	*	*I'Vn II	*	*I'Vn I	*	*I'T.	*	*I'C.	*
*clefF4	*	*clefG2	*	*clefG2	*	*clefC4	*	*clefC1	*
*k[f#c#]	*	*k[f#c#]	*	*k[f#c#]	*	*k[f#c#]	*	*k[f#c#]	*
*M4/4	*	*M4/4	*	*M4/4	*	*M4/4	*	*M4/4	*
*met(c)	*	*met(c)	*	*met(c)	*	*met(c)	*	*met(c)	*
=1	=1	=1	=1	=1	=1	=1	=1	=1	=1
!LO:TX:a:t=Allo	!	!LO:TX:b:t=Dixit	!	!LO:TX:b:t=Dixit	!	!	!	!	!
!LO:TX:b:t=Dixit	!	!LO:TX:a:t=Allo	!	!LO:TX:a:t=allo	!	!LO:TX:a:t=Allo	!	!LO:TX:a:t=Allo	!
!	!	!	!	!LO:TX:a:t=P:problem:brak nazwy instrumentu na karcie głosu	!	!LO:TX:a:t=P:problem:przy kluczu krzyżyki jeden nad drugim	!	!LO:TX:a:t=P:problem:przy kluczu krzyżyki jeden nad drugim, cis oktawę wyżej	!
4d\	.	4ff#\	.	8ff#\L	.	4A\	Di-	4ff#\	Di-
.	.	.	.	16ff#\L	.	.	.	.	.
.	.	.	.	16gg\JJ	.	.	.	.	.
4A\	.	8cc#\L	.	8aa\L	.	4c#\	-xit	8ff#\L	-xit
.	.	8ee\J	.	8cc#\J	.	.	.	8ee\J	.
8B\L	.	8f#/L	.	8dd\L	.	8F#/	Do-	8dd\	Do-
16A\L	.	8g/	.	16cc#\L	.	8G/	-mi-	16cc#\LL	-mi-
16G\JJ	.	.	.	16b\JJ	.	.	.	16b\JJ	.
8F#\L	.	8a/	.	8a\L	.	8A\	-nuſ	8a\	-nus
8F#\J	.	8a/J	.	8dd\J	.	(8A\	Do-	(8dd\	D(o)-
=2	=2	=2	=2	=2	=2	=2	=2	=2	=2
*	*	*Xtuplet	*	*	*	*	*	*	*
!	!	!LO:TUP:a:problem:klamra łukowa bez numeru	!	!LO:TUP:a:problem:klamra łukowa	!	!	!	!	!
8E\L	.	24cc#\LL	.	24ee\LL	.	8c#\)	.	8ee\)	.
.	.	24dd\	.	24ff#\	.	.	.	.	.
.	.	24ee\JJ	.	24gg\JJ	.	.	.	.	.
!	!	!LO:TUP:a:problem:klamra łukowa bez numeru	!	!LO:TUP:a:problem:klamra łukowa, kropka zamiast numeru	!	!	!	!	!
8D\	.	24dd\LL	.	24ff#\LL	.	16d\	-mi-	16ee\	-mi-
.	.	24ee\	.	24gg\	.	.	.	.	.
.	.	.	.	.	.	16d\	-no	16ee\	-no
.	.	24ff#\JJ	.	24aa\JJ	.	.	.	.	.
.	.	8qqff#/	.	8qqaa/	.	8qqf#/	.	8qqaa/	.
8C#\	.	4ee\	.	4gg\	.	4e\	me-	4gg\	me-
8AA\J	.	.	.	.	.	.	.	.	.
8D\L	.	16dd\LL	.	16ff#\LL	.	8d\	-o	8ff#\	-o
.	.	16dd\	.	16dd\	.	.	.	.	.
8d\	.	16ee\	.	16ee\	.	8A\	se-	8ff#\	se-
.	.	16ff#\JJ	.	16ff#\JJ	.	.	.	.	.
8d\	.	16gg\LL	.	16gg\LL	.	8A\	-de	8ff#\	-de
.	.	16aa\	.	16aa\	.	.	.	.	.
8A\J	.	16bb\	.	16bb\	.	8c#\	a	8ee\	a
.	.	16ccc#\JJ	.	16ccc#\JJ	.	.	.	.	.
=3	=3	=3	=3	=3	=3	=3	=3	=3	=3
!LO:TX:a:t=P:problem:mixed beam	!	!	!	!	!	!	!	!	!
8F#\L	.	16ddd\LL	.	16ddd\LL	.	8A\	dex-	8ff#\	dex-
.	.	16aa\	.	16aa\	.	.	.	.	.
8G\	.	16bb\	.	16bb\	.	8B\	-tris	8ee\	-tris
.	.	16gg\JJ	.	16gg\JJ	.	.	.	.	.
8A\	.	8ff#\L	.	8ff#\L	.	8F#/L	me-	8dd\L	me-
8AA/J	.	8ee\J	.	8ee\J	.	8E/J	.	8cc#\J	.
8D\L	.	16dd\LL	.	16dd\LL	.	8F#/	-iſ	8dd\	-is
.	.	16a\	.	16ff#\	.	.	.	.	.
8d\J	.	16a\	.	16ff#\	.	16A\	do-	16ff#\	do-
.	.	16a\JJ	.	16ff#\JJ	.	16A\	-nec	16ff#\	-nec
16D\LL	.	16a\LL	.	16ff#\LL	.	8A\	po-	8ff#\	po-
16E\	.	16a\	.	16ff#\	.	.	.	.	.
16F#\	.	16a\	.	16ff#\	.	8A\	-nam	8ff#\	-nam
16G\JJ	.	16a\JJ	.	16ff#\JJ	.	.	.	.	.
=4	=4	=4	=4	=4	=4	=4	=4	=4	=4
8A\L	.	16cc#\LL	.	16ee\LL	.	8c#\	i-	8ee\	i-
.	.	16cc#\	.	16aa\	.	.	.	.	.
8A\J	.	16cc#\	.	16aa\	.	8e\	-ni-	8cc#\	-ni-
.	.	16cc#\JJ	.	16aa\JJ	.	.	.	.	.
16AA/LL	.	16cc#\LL	.	16aa\LL	.	8e\	-mi-	8cc#\	-mi-
16BB/	.	16cc#\	.	16aa\	.	.	.	.	.
16C#X/	.	16cc#\	.	16aa\	.	8e\	-cos	8cc#\	-cos
16D/JJ	.	16cc#\JJ	.	16aa\JJ	.	.	.	.	.
8E\L	.	8b\L	.	8gg#X\L	.	8e\	tu-	8b\	tu-
8E\	.	8b\	.	8gg#\J	.	8e\	-os	8b\	-os
8G#X\	.	8b\	.	16e/LL	.	8B\L	sca-	4dd\	Sca-
.	.	.	.	16g#X/	.	.	.	.	.
8E\J	.	8g#X\J	.	16b/	.	8G#X\J	.	.	.
.	.	.	.	16dd/JJ	.	.	.	.	.
=5	=5	=5	=5	=5	=5	=5	=5	=5	=5
8A\L	.	8e/L	.	8cc#\L	.	8E/	-bel-	8cc#\	-be-
8E\	.	8g#X/	.	8b\J	.	8G/	-lum	8b\	-lum
8G#X\	.	8b/	.	16e/LL	.	8B\L	pe-	4dd\	pe-
.	.	.	.	16g#X/	.	.	.	.	.
8E\J	.	8g#/J	.	16b/	.	8G#X\J	.	.	.
.	.	.	.	16dd/JJ	.	.	.	.	.
*	*	*	*	*Xtuplet	*	*	*	*	*
!LO:TX:a:t=P:problem:mixed beam	!	!	!	!	!	!	!	!LO:LB:g=original	!
8A\L	.	8e/	.	24cc#\LL	.	8E/	-dum	8cc#\	-dum
.	.	.	.	24dd\	.	.	.	.	.
.	.	.	.	24ee\JJ	.	.	.	.	.
8D\	.	4a/	.	24ff#\LL	.	8B\	tu-	8dd\	tu-
.	.	.	.	24gg#X\	.	.	.	.	.
.	.	.	.	24aa\JJ	.	.	.	.	.
8E\	.	.	.	8a/L	.	8A\L	-o-	8cc#\L	-o-
8EE/J	.	8g#X/	.	8b/J	.	8G#X\J	.	8b\J	.
!	!	!	!	!LO:LB:g=original	!	!LO:LB:g=original	!	!	!
=6	=6	=6	=6	=6	=6	=6	=6	=6	=6
4AA/	.	8a\L	.	8a\L	.	8A\	-rum	8a\	-rum
.	.	8a\	.	8a\	.	8A\	Vir-	8a\	Vir-
4r	.	8a\	.	8cc#\	.	8A\	-gam	8cc#\	-gam
.	.	8b\J	.	8dd\J	.	8B\	Vir-	8dd\	Vir-
8r	.	8cc#\L	.	4ee\	.	4c#\	-tu-	4ee\	-tu-
8AA/L	.	8cc#\	.	.	.	.	.	.	.
8C#/	.	8ee\	.	8ee\L	.	8c#\	-tis	8ee\	-tis
8D/J	.	8a\J	.	8ff#\J	.	8A\	Vir-	8ff#\	Vir-
!	!	!LO:LB:g=original	!	!	!	!	!	!	!
=7	=7	=7	=7	=7	=7	=7	=7	=7	=7
8E\L	.	8cc#\L	.	8gg\L	.	8c#\	-tu-	8gg\	-tu-
8D\	.	8dd\	.	8ff#\	.	8d\	-tiſ	8ff#\	-tis
8C#\	.	8ee\	.	8gg\	.	4e\	tu-	4gg\	tu-
8AA\J	.	8ee\J	.	8gg\J	.	.	.	.	.
4D\	.	4dd\	.	8ff#\L	.	4d\	-ae	8ff#\	-ae
.	.	.	.	8aa\	.	.	.	8aa\	e-
4r	.	4r	.	8dd\	.	4r	.	8dd\	-mit-
.	.	.	.	8ccn\J	.	.	.	8ccn\	-te
=8	=8	=8	=8	=8	=8	=8	=8	=8	=8
!	!	!	!	!LO:SIC:s=ccn:v	!	!	!	!LO:SIC:s=ccn:v	!
8r	.	8r	.	8cc#\L	.	8r	.	4.cc#\	Do-
!	!	!	!	!LO:SIC:s=ccn:v	!	!	!	!	!
8D\L	.	8f#/L	.	8cc#\	.	8F#/L	Do-	.	.
!	!	!	!	!LO:SIC:s=ccn:v	!	!	!	!	!
8E\	.	8g/	.	8cc#\	.	8G/J	.	.	.
!	!	!	!	!LO:SIC:s=ccn:v	!	!	!	!LO:SIC:s=ccn:v	!
8F#\J	.	8a/J	.	8cc#\J	.	8A/	-mi-	8cc#\	-mi-
4G\	.	4d/	.	8b\L	.	4D/	-nuſ	8b\	-nus
.	.	.	.	8bb\	.	.	.	8bb\	ex
4r	.	4r	.	8ee\	.	4r	.	8ee\L	Si-
.	.	.	.	8dd\J	.	.	.	8dd\J	.
=9	=9	=9	=9	=9	=9	=9	=9	=9	=9
*	*	*	*	*	*	*	*	*2\right	*
8r	.	8r	.	8dd\L	.	8r	.	2dd\	.
8E\L	.	8g#X/L	.	8dd\	.	8G#X/	ex	.	.
8F#\	.	8a/	.	8dd\	.	8A\L	Si-	.	.
8G#X\J	.	8b/J	.	8dd\J	.	8B\J	.	.	.
!LO:LB:g=original	!	!	!	!	!	!	!	!	!
!LO:TX:a:t=P:problem:mixed beam	!	!LO:TX:a:t=P:problem:mixed beam	!	!	!	!	!	!	!
8A\L	.	8e/L	.	8cc#\L	.	4E/	-on	4cc#\	-on
16AA/L	.	16cc#\L	.	16ee\L	.	.	.	.	.
16BB/JJ	.	16cc#\JJ	.	16ee\JJ	.	.	.	.	.
16C#\LL	.	16cc#\LL	.	16ee\LL	.	8c#\	Do-	8ee\	Do-
16D\	.	16cc#\	.	16ee\	.	.	.	.	.
16E\	.	16cc#\	.	16ee\	.	8c#\	-mi-	8ee\	-mi-
32F#\L	.	16cc#\JJ	.	16ee\JJ	.	.	.	.	.
32G#X\JJJ	.	.	.	.	.	.	.	.	.
=10	=10	=10	=10	=10	=10	=10	=10	=10	=10
!LO:TX:a:t=P:problem:mixed beam	!	!	!	!	!	!	!	!	!
8A\L	.	16cc#\LL	.	16ee\LL	.	4c#\	-na-	4ee\	-na-
.	.	16cc#\	.	16ee\	.	.	.	.	.
16AA/L	.	16cc#\	.	16ee\	.	.	.	.	.
16BB/JJ	.	16cc#\JJ	.	16ee\JJ	.	.	.	.	.
16C#\LL	.	16cc#\LL	.	16ee\LL	.	8c#\	-re	8ee\	-re
16D\	.	16cc#\	.	16ee\	.	.	.	.	.
16E\	.	16cc#\	.	16ee\	.	8c#\	in	8ee\	in
32F#\L	.	16cc#\JJ	.	16ee\JJ	.	.	.	.	.
32G#X\JJJ	.	.	.	.	.	.	.	.	.
!LO:TX:a:t=P:problem:mixed beam	!	!	!	!	!	!	!	!	!
8A\L	.	16ee\LL	.	16gg\LL	.	4e\	me-	4gg\	me-
.	.	16ee\	.	16gg\	.	.	.	.	.
8AA/	.	16ee\	.	16gg\	.	.	.	.	.
.	.	16ee\JJ	.	16gg\JJ	.	.	.	.	.
!	!	!	!	!LO:TX:a:t=P:problem:grupa szesnastkowa zapisana repetycją	!	!	!	!	!
8BB/	.	16ee\LL	.	16gg\LLyy	.	4e\	-di-	4gg\	-di-
.	.	16ee\	.	16gg\yy	.	.	.	.	.
8C#/J	.	16ee\	.	16gg\yy	.	.	.	.	.
.	.	16ee\JJ	.	16gg\JJyy	.	.	.	.	.
!	!	!	!	!	!	!	!	!LO:LB:g=original	!
=11	=11	=11	=11	=11	=11	=11	=11	=11	=11
8D\L	.	16dd\LL	.	16ff#\LL	.	8d\	-o	8ff#\	-o
.	.	16ff#\	.	16ddd\	.	.	.	.	.
8D\	.	16ff#\	.	16ddd\	.	8d\	i-	8ff#\	i-
.	.	16ff#\JJ	.	16ddd\JJ	.	.	.	.	.
8F#\	.	16ff#\LL	.	16ddd\LL	.	8d\	-ni-	8ff#\	-ni-
.	.	16ff#\	.	16ddd\	.	.	.	.	.
8Gn\J	.	16ff#\	.	16ddd\	.	8d\	-mi-	8ff#\	-mi-
.	.	16ff#\JJ	.	16ddd\JJ	.	.	.	.	.
8A\L	.	8ee\L	.	8ccc#\L	.	4c#\	-co-	4ee\	-co-
8G\	.	16dd\L	.	16bb\L	.	.	.	.	.
.	.	16cc#\JJ	.	16aa\JJ	.	.	.	.	.
8F#\	.	8ff#\L	.	16ddd\LL	.	8d\	-rum	8ff#\	-rum
.	.	.	.	16aa\	.	.	.	.	.
8G\J	.	8ee\J	.	16bb\	.	8e\	tu-	8gg\	tu-
.	.	.	.	16gg\JJ	.	.	.	.	.
=12	=12	=12	=12	=12	=12	=12	=12	=12	=12
!LO:TX:a:t=P:problem:mixed beam	!	!	!	!	!	!	!	!	!
8A\L	.	4dd\	.	4ff#\	.	4d\	-o-	4ff#\	-o-
8G\	.	.	.	.	.	.	.	.	.
!	!	!LO:TX:a:t=P:problem:niejednoznaczny zapis ozdobnika [przyjęto tryl]:global	!	!LO:TX:a:t=P:problem:niejednoznaczny zapis ozdobnika [przyjęto tryl]:global	!	!	!	!LO:TX:a:t=P:problem:niejednoznaczny zapis ozdobnika [przyjęto tryl]:global	!
8A\	.	4cc#t\	.	4eeT\	.	4c#\	.	4eeT\	.
8AA/J	.	.	.	.	.	.	.	.	.
4D\	.	4dd\	.	4dd\	.	4d\	-rum	8dd\	-rum
.	.	.	.	.	.	.	.	8aa\	Te-
.	.	.	.	.	.	.	.	8qqgg/	.
!	!LO:DY:a	!	!	!	!	!	!	!	!
8B\L	p	4r	.	4r	.	4r	.	8ff#\	-cum
8G\J	.	.	.	.	.	.	.	16ee\LL	prin-
.	.	.	.	.	.	.	.	16dd\JJ	.
!	!	!	!	!LO:LB:g=original	!	!LO:LB:g=original	!	!	!
=13	=13	=13	=13	=13	=13	=13	=13	=13	=13
8A\L	.	4r	.	4r	.	00r	.	8.cc#\	-ci-
8G\	.	.	.	.	.	.	.	.	.
.	.	.	.	.	.	.	.	16cc#\	-pi-
8F#\	.	8r	.	8r	.	.	.	8dd\	-um
!	!	!	!LO:DY:a	!	!LO:DY:a	!	!	!	!
8F#\J	.	8a/	p	8dd\	p	.	.	8dd\	in
8G\L	.	8b/L	.	8ee\L	.	.	.	8ee\	di-
8F#\	.	8a/	.	8dd\	.	.	.	16dd\	-e
.	.	.	.	.	.	.	.	16ff#\	Vir-
8G\	.	8b/	.	8ee\	.	.	.	8ee\	-tu-
8F#\J	.	8a/J	.	8dd\J	.	.	.	8dd\	-tis
=14	=14	=14	=14	=14	=14	=14	=14	=14	=14
.	.	.	.	8qqa/	.	.	.	8qqa/	.
8E\L	.	8c#/L	.	8g/L	.	.	.	8g\	tu-
8D\J	.	8d/J	.	8f#/J	.	.	.	8f#\	-ae
4d\	.	4r	.	4r	.	.	.	8ff#\	in
.	.	.	.	.	.	.	.	16aa\LL	Splen-
.	.	.	.	.	.	.	.	16ff#\JJ	.
8c#\L	.	2r	.	2r	.	.	.	8ee\	-do-
8B\	.	.	.	.	.	.	.	8dd\	-ri-
.	.	.	.	.	.	.	.	8qqdd/	.
8A\	.	.	.	.	.	.	.	8cc#\	-bus
8D\J	.	.	.	.	.	.	.	16b\LL	Sanc-
.	.	.	.	.	.	.	.	16a\JJ	.
!	!	!LO:LB:g=original	!	!	!	!	!	!LO:LB:g=original	!
=15	=15	=15	=15	=15	=15	=15	=15	=15	=15
8E\L	.	0r	.	0r	.	.	.	16g/LL	-to-
.	.	.	.	.	.	.	.	16f#/JJ	.
16E\L	.	.	.	.	.	.	.	8e/	-rum
16F#\JJ	.	.	.	.	.	.	.	.	.
8G#X\L	.	.	.	.	.	.	.	8r	.
8E\J	.	.	.	.	.	.	.	8ee\	ex
8F#\L	.	.	.	.	.	.	.	4ee\	u-
8E\	.	.	.	.	.	.	.	.	.
8F#\	.	.	.	.	.	.	.	8dd\	-te-
8G#X\J	.	.	.	.	.	.	.	8dd\	-ro
=16	=16	=16	=16	=16	=16	=16	=16	=16	=16
!LO:TX:a:t=P:problem:mixed beam	!	!	!	!	!	!	!	!	!
.	.	.	.	.	.	.	.	8qqdd/	.
8A\L	.	.	.	.	.	.	.	4cc#\	an-
8AA/	.	.	.	.	.	.	.	.	.
8D\	.	.	.	.	.	.	.	8b\	-te
8F#\J	.	.	.	.	.	.	.	8a\	lu-
8E\L	.	.	.	.	.	.	.	4g#X\	-ci-
8D\	.	.	.	.	.	.	.	.	.
8C#\	.	.	.	.	.	.	.	8a\	-fe-
8D\J	.	.	.	.	.	.	.	8b\	-rum
=17	=17	=17	=17	=17	=17	=17	=17	=17	=17
!LO:TX:a:t=P:problem:mixed beam	!	!	!	!	!	!	!	!	!
8E\L	.	2r	.	2r	.	2r	.	4cc#\	ge-
8D\	.	.	.	.	.	.	.	.	.
8E\	.	.	.	.	.	.	.	8.bT\	-nu-
8EE/J	.	.	.	.	.	.	.	.	.
.	.	.	.	.	.	.	.	16b\	-i-
!LO:LB:g=original	!LO:DY:a	!	!LO:DY:a	!	!LO:DY:a	!	!	!	!
4AA/	f	4cc#\	f	8cc#\L	f	8r	.	8a\	-te
.	.	.	.	16cc#\L	.	8E/	Ju-	8cc#\	Ju-
.	.	.	.	16dd\JJ	.	.	.	.	.
!	!	!	!	!LO:TX:a:t=P:problem:mixed beam	!	!	!	!	!
4E\	.	8g#X/L	.	8ee\L	.	8E/	-ra-	8cc#\	-ra-
.	.	8b/J	.	8g#X/J	.	8G#X/	-vit	8b\	-vit
=18	=18	=18	=18	=18	=18	=18	=18	=18	=18
8F#\L	.	8c#/L	.	8a/L	.	8c#\	Do-	8a\	Do-
16E\L	.	8d/	.	16g#X/L	.	8d\	-mi-	16g#X/LL	-mi-
16D\JJ	.	.	.	16f#/JJ	.	.	.	16f#/JJ	.
!LO:TX:a:t=P:problem:mixed beam	!	!	!	!	!	!	!	!	!
8C#/L	.	8e/	.	8e/L	.	8e\	-nuſ	8e/	-nus
8c#\J	.	8e/J	.	8a/J	.	8e\	et	8a\	et
*	*	*	*	*tuplet	*	*	*	*	*
!	!	!LO:TUP:b:problem:klamra łukowa bez numeru	!	!LO:TUP:a:problem:klamra łukowa	!	!LO:SIC:l:s=non:v	!	!	!
8B\L	.	24g#X/LL	.	24b\LL	.	8G#X/	in	8b\	non
.	.	24a/	.	24cc#\	.	.	.	.	.
.	.	24b/JJ	.	24dd\JJ	.	.	.	.	.
!	!	!LO:TUP:b:problem:klamra łukowa bez numeru	!	!LO:TUP:a:problem:klamra łukowa	!	!	!	!	!
8A\	.	24a/LL	.	24cc#\LL	.	16A\	pe-	16cc#\	pe-
.	.	24b/	.	24dd\	.	.	.	.	.
.	.	.	.	.	.	16A\	-ni-	16cc#\	-ni-
.	.	24cc#/JJ	.	24ee\JJ	.	.	.	.	.
.	.	8qqcc#/	.	8qqee/	.	.	.	.	.
8G#X\	.	4b/	.	4dd\	.	4B\	-te-	4dd\	-te-
8E\J	.	.	.	.	.	.	.	.	.
=19	=19	=19	=19	=19	=19	=19	=19	=19	=19
8A\L	.	16cc#\LL	.	16cc#\LL	.	4A\	-bit	4cc#\	-bit
.	.	16a\	.	16a\	.	.	.	.	.
8A\	.	16b\	.	16b\	.	.	.	.	.
.	.	16cc#\JJ	.	16cc#\JJ	.	.	.	.	.
!	!	!	!	!	!	!	!	!LO:SIC:l:s=pe-:v	!
8c#\	.	16dd\LL	.	16dd\LL	.	8A\	pe-	8cc#\	pi-
.	.	16ee\	.	16ee\	.	.	.	.	.
8B\J	.	16ff#\	.	16ff#\	.	8A\	-ni-	8cc#\	-ni-
.	.	16gg#X\JJ	.	16gg#X\JJ	.	.	.	.	.
!LO:TX:a:t=P:problem:mixed beam	!	!	!	!	!	!	!	!	!
8A\L	.	16aa\LL	.	16aa\LL	.	8A\	-te-	8cc#\	-te-
.	.	16ee\	.	16ee\	.	.	.	.	.
8D\	.	16ff#\	.	16ff#\	.	8B\	-bit	8dd\	-bit
.	.	16dd\JJ	.	16dd\JJ	.	.	.	.	.
8E\	.	8cc#\L	.	8cc#\L	.	8A\L	e-	8cc#\L	e-
8EE/J	.	8bT\J	.	8bT\J	.	8G#X\J	.	8b\J	.
!	!	!	!	!	!	!	!	!LO:LB:g=original	!
=20	=20	=20	=20	=20	=20	=20	=20	=20	=20
8AA/L	.	4a/	.	8a\L	.	8A\	-um	8a\	-um
8BB/J	.	.	.	(16dd\L	.	8F#/	tu	8dd\	tu
.	.	.	.	16ee\JJ)	.	.	.	.	.
4F#\	.	8a#X/L	.	8ff#\L	.	8F#/	es	8dd\	es
.	.	8cc#/J	.	8a#X\J	.	8A#X\	sa-	8cc#\	Sa-
8Gn\L	.	8d/L	.	8b/L	.	8B\L	-cer-	8b\	-cer-
16F#\L	.	8e/	.	16a#X/L	.	8c#\J	.	16a#X\LL	-dos
16E\JJ	.	.	.	16gn/JJ	.	.	.	16g\JJ	.
!	!	!	!	!	!	!	!	!LO:SIC:l:s=in:v	!
8D\L	.	8f#/	.	8f#/L	.	8d\	-dos	8f#/	i
!	!	!	!	!	!	!	!	!LO:SIC:l:s=ae-:v	!
8D\J	.	8f#/J	.	8b/J	.	8F#/	ae-	8b\	ne-
=21	=21	=21	=21	=21	=21	=21	=21	=21	=21
!	!	!LO:TUP:a:problem:klamra łukowa	!	!LO:TUP:a:problem:klamra łukowa, kropka zamiast numeru	!	!	!	!	!
8C#/L	.	24a#X\LL	.	24cc#\LL	.	8A#X\L	-ter-	8cc#\L	-ter-
.	.	24b\	.	24dd\	.	.	.	.	.
.	.	24cc#\JJ	.	24ee\JJ	.	.	.	.	.
!	!	!LO:TUP:a:problem:klamra łukowa	!	!LO:TUP:a:problem:klamra łukowa, kropka zamiast numeru	!	!	!	!	!
16BB/L	.	24b\LL	.	24dd\LL	.	8B\J	.	8dd\J	.
.	.	24cc#\	.	24ee\	.	.	.	.	.
16AA#X/JJ	.	.	.	.	.	.	.	.	.
.	.	24dd\JJ	.	24ff#\JJ	.	.	.	.	.
.	.	8qqdd/	.	8qqff#/	.	.	.	.	.
4F#\	.	4cc#\	.	4ee\	.	4c#\	.	4ee\	.
!LO:TX:a:t=P:problem:mixed beam	!	!	!	!LO:LB:g=original	!	!	!	!	!
8BB/L	.	16b\LL	.	16dd\LL	.	8B\	-num	8dd\	-num
.	.	16b\	.	16b\	.	.	.	.	.
8B\	.	16cc#\	.	16cc#\	.	8F#/	Se-	8dd\	Se-
.	.	16dd\JJ	.	16dd\JJ	.	.	.	.	.
8B\	.	16ee\LL	.	16ee\LL	.	8F#/	-cun-	8dd\	-cun-
.	.	16ff#\	.	(16ff#\	.	.	.	.	.
!	!	!LO:SIC:s=gg#:v	!	!	!	!	!	!	!
8F#\J	.	16gg\	.	16gg#X\)	.	8A#X\	-dum	8cc#\	-dum
.	.	16aa#X\JJ	.	16aa#X\JJ	.	.	.	.	.
=22	=22	=22	=22	=22	=22	=22	=22	=22	=22
!LO:TX:a:t=P:problem:mixed beam	!	!	!	!	!	!	!	!	!
8D\L	.	16bb\LL	.	16bb\LL	.	(8B\L	or-	(8dd\L	or-
.	.	16ff#\	.	16ff#\	.	.	.	.	.
8E\	.	16gg\	.	16gg\	.	8c#\J)	.	8ee\J)	.
.	.	16ee\JJ	.	16ee\JJ	.	.	.	.	.
8F#\	.	8dd\L	.	8dd\L	.	8B\	.	8dd\	.
8FF#/J	.	8cc#\J	.	8cc#t\J	.	8A#X\	-di-	8cc#\	-di-
!	!	!LO:LB:g=original	!	!	!	!LO:LB:g=original	!	!	!
!	!	!	!	!	!	!LO:SIC:l:s=-nem:v	!	!	!
8BB/L	.	16b\LL	.	16b\LL	.	8B\	-nen	8b\	-nem
.	.	16dd\	.	16bb\	.	.	.	.	.
8BB/	.	16dd\	.	16bb\	.	8B\	Se-	8dd\	Se-
.	.	16dd\JJ	.	16bb\JJ	.	.	.	.	.
8D/	.	16dd\LL	.	16bb\LL	.	8B\	-cun-	8dd\	-cun-
.	.	16dd\	.	16bb\	.	.	.	.	.
8E/J	.	16dd\	.	16bb\	.	8B\	-dum	8dd\	-dum
.	.	16dd\JJ	.	16bb\JJ	.	.	.	.	.
=23	=23	=23	=23	=23	=23	=23	=23	=23	=23
8F#\L	.	8cc#\L	.	8aa#X\L	.	8A#X\	or-	8cc#\	or-
8E\	.	16b\L	.	16gg\L	.	8A#\	-di-	8cc#\	-di-
.	.	16a#X\JJ	.	16ff#\JJ	.	.	.	.	.
8D\	.	8dd\L	.	16bb\LL	.	8B\	-nem	8dd\	-nem
.	.	.	.	16ff#\	.	.	.	.	.
8G\J	.	8b\J	.	16gg\	.	8c#\	Mel-	8ee\	Mel-
.	.	.	.	16ee\JJ	.	.	.	.	.
!LO:TX:a:t=P:problem:mixed beam	!	!	!	!	!	!	!	!	!
8F#\L	.	4b\	.	4dd\	.	4B\	-chi-	4dd\	-chi-
8E\	.	.	.	.	.	.	.	.	.
8F#\	.	4a#Xt/	.	4cc#t\	.	4A#X\	-ſe-	4cc#t\	-ſe-
8FF#/J	.	.	.	.	.	.	.	.	.
=24	=24	=24	=24	=24	=24	=24	=24	=24	=24
!LO:TX:a:t=P:problem:mixed beam	!LO:DY:a	!	!	!	!	!LO:TX:a:t=Solo	!	!	!
8BB/L	p	4b\	.	4b\	.	4B\	-dech	4b\	-dech
8B\	.	.	.	.	.	.	.	.	.
8A#X\	.	4r	.	4r	.	8f#\	Do-	4r	.
8F#\J	.	.	.	.	.	8e\	-mi-	.	.
.	.	.	.	.	.	8qqe/	.	.	.
8B\L	.	2r	.	2r	.	8d\	-nuſ	2r	.
8D\	.	.	.	.	.	16c#\LL	a	.	.
.	.	.	.	.	.	16B\JJ	.	.	.
.	.	.	.	.	.	8qqd/	.	.	.
8E\	.	.	.	.	.	8c#\	dex-	.	.
8F#\J	.	.	.	.	.	16B\LL	-triſ	.	.
.	.	.	.	.	.	16A#X\JJ	.	.	.
=25	=25	=25	=25	=25	=25	=25	=25	=25	=25
!LO:TX:a:t=P:problem:mixed beam	!	!	!	!	!	!	!	!	!
8BB/L	.	0r	.	0r	.	8B\	tu-	0r	.
8B\	.	.	.	.	.	8B\	-iſ	.	.
8A#X\	.	.	.	.	.	4c#\	con-	.	.
8F#\J	.	.	.	.	.	.	.	.	.
.	.	.	.	.	.	8qqe/	.	.	.
!LO:LB:g=original	!	!	!	!	!	!	!	!	!
8B\L	.	.	.	.	.	8d\	-fre-	.	.
8F#\	.	.	.	.	.	8c#\	-git	.	.
8A#X\	.	.	.	.	.	4c#\	in	.	.
8F#\J	.	.	.	.	.	.	.	.	.
=26	=26	=26	=26	=26	=26	=26	=26	=26	=26
.	.	.	.	.	.	8qqe/	.	.	.
8B\L	.	.	.	.	.	8d\	di-	.	.
8F#\	.	.	.	.	.	8c#\	-e	.	.
8E\	.	.	.	.	.	8g\	i-	.	.
!	!	!	!	!	!	!LO:SIC:l:s=-rae:v	!	!	!
8C#\J	.	.	.	.	.	16f#\LL	-re	.	.
.	.	.	.	.	.	16e\JJ	.	.	.
!LO:TX:a:t=P:problem:mixed beam	!	!	!	!	!	!	!	!	!
8D\L	.	.	.	.	.	8f#\	Su-	.	.
8E\	.	.	.	.	.	8e\	-ae	.	.
8F#\	.	.	.	.	.	8d\L	Re-	.	.
8FF#/J	.	.	.	.	.	8c#\J	.	.	.
=27	=27	=27	=27	=27	=27	=27	=27	=27	=27
!	!LO:DY:a	!	!	!	!	!	!	!	!
8BB\L	f	4r	.	4r	.	4B\	-geſ	4r	.
8BB\	.	.	.	.	.	.	.	.	.
!	!	!	!	!	!	!LO:TX:a:t=Tutti	!	!	!
8D\	.	8dd\L	.	8bb\L	.	8B\	Ju-	8dd\	Ju-
8F#\J	.	8cc#\J	.	8aa#X\J	.	8A#X\	-di-	8cc#\	-di-
!	!	!	!	!	!	!LO:LB:g=original	!	!LO:LB:g=original	!
8D\L	.	8dd\L	.	8bb\L	.	8B\	-ca-	8dd\	-ca-
8BB\	.	8dd\	.	8bb\	.	16B\	-bit	16dd\	-bit
.	.	.	.	.	.	16B\	in	16dd\	in
8D\	.	8dd\	.	8bb\	.	8B\	na-	8dd\	na-
8F#\J	.	8cc#\J	.	8aa#\J	.	8A#X\	-ti-	8cc#\	-ti-
=28	=28	=28	=28	=28	=28	=28	=28	=28	=28
8D\L	.	8dd\L	.	8bb\L	.	16B\	-o-	16dd\	-o-
.	.	.	.	.	.	16B\	-ni-	16dd\	-ni-
8BB\	.	8dd\	.	8bb\	.	8B\	-buſ	8dd\	-bus
!	!	!	!	!	!	!	!	!LO:SIC:l:s=im-:v	!
8F#\	.	8ff#\	.	8ddd\	.	8d\L	in-	8ff#\L	in-
8A\J	.	8ee\J	.	8ccc#\J	.	8c#\J	.	8ee\J	.
8F#\L	.	8ff#\L	.	8ddd\L	.	4d\	-ple-	4ff#\	-ple-
8D\	.	8ff#\	.	8ddd\	.	.	.	.	.
8F#\	.	8ff#\	.	8ddd\	.	8d\	-bit	8ff#\	-bit
8A\J	.	8ee\J	.	8ccc#\J	.	8c#\	ru-	8ee\	ru-
=29	=29	=29	=29	=29	=29	=29	=29	=29	=29
8F#\L	.	8ff#\L	.	8ddd\L	.	8d\	-i-	8ff#\	-i-
8D\J	.	8ff#\J	.	8ddd\J	.	8d\	-nas	8ff#\	-nas
16D\LL	.	16ff#\LL	.	16ddd\LL	.	8d\	con-	8ff#\	con-
16E\	.	16ff#\	.	16ddd\	.	.	.	.	.
16F#\	.	16ff#\	.	16ddd\	.	8d\	-quaſ-	8ff#\	-quaſ-
16G\JJ	.	16ff#\JJ	.	16ddd\JJ	.	.	.	.	.
!LO:TX:a:t=P:problem:mixed beam	!	!	!	!	!	!	!	!	!
8A\L	.	8ee\L	.	8ccc#\L	.	8c#\	-sa-	8ee\	-sa-
8AA/J	.	8ee\J	.	8ccc#\J	.	8c#\	-bit	8ee\	-bit
16D\LL	.	16ff#\LL	.	16ddd\LL	.	8d\	ca-	8ff#\	ca-
16E\	.	16ff#\	.	16ddd\	.	.	.	.	.
16F#\	.	16ff#\	.	16ddd\	.	8d\	-pi-	8ff#\	-pi-
16G\JJ	.	16ff#\JJ	.	16ddd\JJ	.	.	.	.	.
!	!	!	!	!LO:LB:g=original	!	!	!	!	!
=30	=30	=30	=30	=30	=30	=30	=30	=30	=30
!LO:TX:a:t=P:problem:mixed beam	!	!	!	!	!	!	!	!	!
8A\L	.	8ee\L	.	8ccc#\L	.	8c#\	-ta	8ee\	-ta
8AA/	.	8cc#\	.	8gg\J	.	8e\	in	8gg\	in
8BB/	.	8dd\	.	4ggT\	.	4e\	ter-	4gg\	ter-
8C#/J	.	8ee\J	.	.	.	.	.	.	.
!LO:TX:a:t=P:problem:mixed beam	!	!	!	!	!	!	!	!	!
8D\L	.	4dd\	.	8ff#\L	.	8d\	-ra	8ff#\	-ra
8G\	.	.	.	16ee\L	.	8d\	mul-	(16ee\LL	mul-
.	.	.	.	16dd\JJ	.	.	.	16dd\JJ)	.
8A\	.	4cc#X\	.	4eeT\	.	4c#\	-to-	4eeT\	-to-
8AA/J	.	.	.	.	.	.	.	.	.
=31	=31	=31	=31	=31	=31	=31	=31	=31	=31
8D\L	.	8dd\	.	8dd\	.	4d\	-rum	4dd\	-rum
8D\	.	4f#/	.	4dd\	.	.	.	.	.
8D\	.	.	.	.	.	4r	.	4r	.
8D\J	.	8f#/	.	8dd\	.	.	.	.	.
8D\L	.	8g/	.	8b\	.	2r	.	2r	.
8D\	.	4f#/	.	4a\	.	.	.	.	.
8D\	.	.	.	.	.	.	.	.	.
8D\J	.	8f#/	.	8dd\	.	.	.	.	.
=32	=32	=32	=32	=32	=32	=32	=32	=32	=32
4G\	.	8g/	.	8b/	.	0r	.	0r	.
.	.	4f#/	.	4a/	.	.	.	.	.
4A\	.	.	.	.	.	.	.	.	.
.	.	8e/	.	8g/	.	.	.	.	.
!	!	!LO:LB:g=original	!	!	!	!	!	!	!
8D\L	.	16d/LL	.	16f#/LL	.	.	.	.	.
.	.	16a/	.	16a/	.	.	.	.	.
8F#\	.	16b/	.	16b/	.	.	.	.	.
.	.	16cc#/JJ	.	16cc#/JJ	.	.	.	.	.
8F#\	.	16dd\LL	.	16dd\LL	.	.	.	.	.
.	.	16ee\	.	16ee\	.	.	.	.	.
8D\J	.	16ff#\	.	16ff#\	.	.	.	.	.
.	.	16a\JJ	.	16a\JJ	.	.	.	.	.
=33	=33	=33	=33	=33	=33	=33	=33	=33	=33
8G\L	.	8b\	.	8b\	.	.	.	.	.
8G\	.	4bb\	.	4bb\	.	.	.	.	.
8G\	.	.	.	.	.	.	.	.	.
8G\J	.	8b\	.	8b\	.	.	.	.	.
8A\L	.	24cc#\LL	.	24cc#\LL	.	.	.	.	.
.	.	24ee\	.	24ee\	.	.	.	.	.
.	.	24dd\	.	24dd\	.	.	.	.	.
8A\	.	24cc#\	.	24cc#\	.	.	.	.	.
.	.	24b\	.	24b\	.	.	.	.	.
.	.	24a\JJ	.	24a\JJ	.	.	.	.	.
8C#\	.	24g/LL	.	24g\LL	.	.	.	.	.
.	.	24b/	.	24b\	.	.	.	.	.
.	.	24a/	.	24a\	.	.	.	.	.
8C#\J	.	24g/	.	24g\	.	.	.	.	.
.	.	24f#/	.	24f#\	.	.	.	.	.
.	.	24e/JJ	.	24e\JJ	.	.	.	.	.
!LO:LB:g=original	!	!	!	!	!	!	!	!	!
=34	=34	=34	=34	=34	=34	=34	=34	=34	=34
4D\	.	4f#/	.	8f#/L	.	1r	.	1r	.
.	.	.	.	8a/J	.	.	.	.	.
16r	.	16r	.	4dd\	.	.	.	.	.
16D\LL	.	16f#/LL	.	.	.	.	.	.	.
16E\	.	16g/	.	.	.	.	.	.	.
16F#\JJ	.	16a/JJ	.	.	.	.	.	.	.
*	*	*tuplet	*	*	*	*	*	*	*
!LO:TX:a:t=P:problem:mixed beam	!	!LO:TUP:a:problem:klamra łukowa	!	!LO:TUP:a:problem:klamra łukowa	!	!	!	!	!
8G\L	.	24b\LL	.	24b\LL	.	.	.	.	.
.	.	24cc#\	.	24cc#\	.	.	.	.	.
.	.	24dd\JJ	.	24dd\JJ	.	.	.	.	.
*	*	*Xtuplet	*	*	*	*	*	*	*
!	!	!LO:TUP:a:problem:klamra łukowa	!	!LO:TUP:a:problem:klamra łukowa	!	!	!	!	!
8E\	.	24ee\LL	.	24ee\LL	.	.	.	.	.
.	.	24ff#\	.	24ff#\	.	.	.	.	.
.	.	24gg\JJ	.	24gg\JJ	.	.	.	.	.
.	.	8qqdd/	.	8qqdd/	.	.	.	.	.
8A\	.	4cc#t\	.	4cc#\	.	.	.	.	.
8AA/J	.	.	.	.	.	.	.	.	.
=35	=35	=35	=35	=35	=35	=35	=35	=35	=35
!	!LO:DY:a	!	!LO:DY:a	!	!LO:DY:a	!	!	!	!
8D\L	p	8dd\	p	8dd\	p	8r	.	8r	.
!	!	!	!	!	!	!LO:TX:a:t=Solo	!	!	!
8D\	.	4f#/	.	4dd\	.	4F#/	De	4dd\	De
8D\	.	.	.	.	.	.	.	.	.
8D\J	.	8f#/	.	8dd\	.	8F#/	tor-	8dd\	tor-
!	!	!	!	!	!	!	!	!LO:LB:g=original	!
8D\L	.	8g/	.	8b\	.	8G/	-ren-	8b\	-ren-
!	!	!LO:N:vis=8	!	!	!	!	!	!	!
8D\	.	4f#/	.	4a\	.	4F#/	-te	4a\	-te
8D\	.	.	.	.	.	.	.	.	.
8D\J	.	8f#/	.	8dd\	.	8F#/	in	8dd\	in
!	!	!	!	!LO:LB:g=original	!	!LO:LB:g=original	!	!	!
=36	=36	=36	=36	=36	=36	=36	=36	=36	=36
4G\	.	8g/	.	8b/	.	8G/	vi-	8b\	Vi-
.	.	4f#/	.	4a/	.	8F#/	-a	8a\	-a
4A\	.	.	.	.	.	8F#/L	bi-	(8a\L	bi-
.	.	8e/	.	8g/	.	8E/J	.	8g\J)	.
4D\	.	4d/	.	4f#/	.	8D/	-bet	8f#/	-bet
.	.	.	.	.	.	8F#/	prop-	8a\	prop-
8r	.	8r	.	8r	.	8G/	-te-	8b\	-te-
8D\	.	8a/	.	8ccn\	.	8A/	-re-	8ccn\	-re-
=37	=37	=37	=37	=37	=37	=37	=37	=37	=37
4G\	.	4d/	.	4b\	.	8G/	-a	8b\	-a
.	.	.	.	.	.	8G#X/	prop-	8b\	prop-
8r	.	8r	.	8r	.	8A\	-te-	8cc#X\	-te-
8E\	.	8b\	.	8dd\	.	8B\	-re-	8dd\	-re-
!LO:TX:a:t=P:problem:mixed beam	!	!	!	!	!	!	!	!	!
.	.	.	.	.	.	8qqB/	-a	8qqdd/	.
8A\L	.	8e/	.	8cc#X\	.	8A\	ex	8cc#\	-a
!	!	!	!	!	!	!LO:TX:b:t=P:problem:podwójne "ex"	!	!	!
8AA/	.	4cc#\	.	4ee\	.	4c#\	ex-	4ee\	ex-
8AA/	.	.	.	.	.	.	.	.	.
8AA/J	.	8dd\	.	8ff#\	.	8d\	-al-	8ff#\	-al-
=38	=38	=38	=38	=38	=38	=38	=38	=38	=38
!LO:TX:a:t=P:problem:mixed beam	!	!	!	!	!	!	!	!	!
8AA/L	.	8ee\L	.	8gg\L	.	8e\L	-ta-	8gg\L	-ta-
8A\	.	16dd\L	.	16ff#\L	.	16d\L	.	16ff#\L	.
.	.	16cc#\JJ	.	16ee\JJ	.	16c#\JJ	.	16ee\JJ	.
8D\	.	8dd\L	.	8ff#\L	.	8d\	.	8ff#\	.
8B\J	.	8ee\J	.	8gg\J	.	8e\	-bit	8gg\	-bit
!LO:TX:a:t=P:problem:mixed beam	!	!	!	!	!	!	!	!	!
8A\L	.	4dd\	.	4ff#\	.	4d\	ca-	4ff#\	ca-
8G\	.	.	.	.	.	.	.	.	.
!	!	!	!	!	!	!LO:TX:a:t=P:problem:niejednoznaczny zapis ozdobnika [przyjęto tryl]:global	!	!	!
8A\	.	4cc#t\	.	4eeT\	.	4c#t\	.	4eeT\	.
8AA/J	.	.	.	.	.	.	.	.	.
!	!	!LO:LB:g=original	!	!	!	!	!	!	!
=39	=39	=39	=39	=39	=39	=39	=39	=39	=39
!	!LO:DY:a	!	!	!	!LO:DY:a	!LO:TX:a:t=Tutti	!	!	!
8D\L	f	8dd\L	.	8ff#\L	f	8d\	-put	8dd\	-put
8d\J	.	8ff#\	.	16ff#\L	.	8A\	Glo-	8ff#\	Glo-
.	.	.	.	16gg\JJ	.	.	.	.	.
4A\	.	8cc#\	.	8aa\L	.	8A\	-ri-	8ff#\	-ri-
.	.	8ee\J	.	8cc#\J	.	8c#\	-a	8ee\	-a
8B\L	.	8f#/L	.	8dd\L	.	8F#/L	Pa-	8dd\L	Pa-
16A\L	.	8g/	.	16cc#\L	.	8G/J	.	16cc#\L	.
16G\JJ	.	.	.	16b\JJ	.	.	.	16b\JJ	.
8F#\L	.	8a/	.	8a\L	.	8A\	-tri	8a\	-tri
8F#\J	.	8a/J	.	8dd\J	.	8A\	et	8dd\	et
!	!	!	!	!	!	!	!	!LO:LB:g=original	!
=40	=40	=40	=40	=40	=40	=40	=40	=40	=40
!	!	!LO:TUP:a:problem:klamra łukowa	!	!LO:TUP:a:problem:klamra łukowa	!	!	!	!	!
8E\L	.	24cc#\LL	.	24ee\LL	.	8c#\L	fi-	8ee\L	fi-
.	.	24dd\	.	24ff#\	.	.	.	.	.
.	.	24ee\JJ	.	24gg\JJ	.	.	.	.	.
!	!	!LO:TUP:a:problem:klamra łukowa	!	!LO:TUP:a:problem:klamra łukowa	!	!	!	!	!
8D\	.	24dd\LL	.	24ff#\LL	.	8d\J	.	8ff#\J	.
.	.	24ee\	.	24gg\	.	.	.	.	.
.	.	24ff#\JJ	.	24aa\JJ	.	.	.	.	.
.	.	8qqff#/	.	8qqaa/	.	.	.	.	.
8C#\	.	4ee\	.	4gg\	.	8.e\	.	8.gg\	.
8AA\J	.	.	.	.	.	.	.	.	.
.	.	.	.	.	.	16e\	-li-	16gg\	-li-
8D\L	.	16dd\LL	.	16ff#\LL	.	8d\	-o	8ff#\	-o
.	.	16dd\	.	16dd\	.	.	.	.	.
8d\	.	16ee\	.	16ee\	.	8A\	et	8ff#\	et
.	.	16ff#\JJ	.	16ff#\JJ	.	.	.	.	.
8d\	.	16gg\LL	.	16gg\LL	.	8A\	Spi-	8ff#\	Spi-
.	.	16aa\	.	16aa\	.	.	.	.	.
8A\J	.	16bb\	.	16bb\	.	8c#\	-ri-	8ff#\	-ri-
.	.	16ccc#\JJ	.	16ccc#\JJ	.	.	.	.	.
!	!	!	!	!	!	!LO:LB:g=original	!	!	!
=41	=41	=41	=41	=41	=41	=41	=41	=41	=41
!LO:TX:a:t=P:problem:mixed beam	!	!	!	!	!	!	!	!	!
8F#\L	.	16ddd\LL	.	16ddd\LL	.	8A\	-tu-	8ff#\	-tu-
.	.	16aa\	.	16aa\	.	.	.	.	.
8G\	.	16bb\	.	16ddd\	.	8B\	-i	8ee\	-i
.	.	16gg\JJ	.	16gg\JJ	.	.	.	.	.
8A\	.	8ff#\L	.	8ff#\L	.	8F#/L	San-	8dd\L	San-
8AA/J	.	8ee\J	.	8eeT\J	.	8E/J	.	8cc#\J	.
4D\	.	8dd\L	.	8dd\L	.	4F#/	-cto	4dd\	-cto
.	.	8aa\J	.	8aa\J	.	.	.	.	.
4r	.	16aa\LL	.	16aa\LL	.	4r	.	4r	.
.	.	16gg\	.	16gg\	.	.	.	.	.
.	.	16ff#\	.	16ff#\	.	.	.	.	.
.	.	16ee\JJ	.	16ee\JJ	.	.	.	.	.
!	!	!	!	!LO:LB:g=original	!	!	!	!	!
=42	=42	=42	=42	=42	=42	=42	=42	=42	=42
!	!	!LO:TX:a:t=P:problem:mixed beam	!	!	!	!	!	!	!
8D\L	.	8dd\L	.	8dd\L	.	8F#/	Si-	8dd\	Si-
8D\	.	8f#/	.	8ccn\J	.	8F#/	-cut	8ccn\	-cut
8E\	.	8g/	.	4ccT\	.	8G/L	e-	4cc\	e-
8F#\J	.	8a/J	.	.	.	8A/J	.	.	.
!	!	!LO:TX:a:t=P:problem:mixed beam	!	!	!	!	!	!	!
4G\	.	8d/L	.	8b\L	.	4G/	-rat	4b\	-rat
.	.	8bb\J	.	8bb\J	.	.	.	.	.
4r	.	16bb\LL	.	16bb\LL	.	4r	.	4r	.
.	.	16aa\	.	16aa\	.	.	.	.	.
.	.	16gg#X\	.	16gg#X\	.	.	.	.	.
.	.	16ff#\JJ	.	16ff#\JJ	.	.	.	.	.
!LO:LB:g=original	!	!	!	!	!	!	!	!	!
=43	=43	=43	=43	=43	=43	=43	=43	=43	=43
8E\L	.	8ee\L	.	8ee\L	.	8G#X/	in	8ee\	in
8E\	.	8g#X\	.	8dd\J	.	8G#/	prin-	8dd\	prin-
8F#\	.	8a\	.	4ddT\	.	8A\	-ci-	8dd\	-ci-
8G#X\J	.	8b\J	.	.	.	8B\	-pi-	8dd\	-pi-
!	!	!LO:TX:a:t=P:problem:mixed beam	!	!	!	!	!	!	!
8A\L	.	8e/L	.	8cc#\L	.	8A\	-o	8cc#\	-o
8A\	.	8cc#\	.	8ee\J	.	8c#\	et	8ee\	et
8c#\	.	8ee\	.	16a\LL	.	8c#\	nunc	8ee\	nun-
.	.	.	.	16cc#\	.	.	.	.	.
8A\J	.	8cc#\J	.	16ee\	.	8c#\	et	8ee\	-cet
.	.	.	.	16ggn\JJ	.	.	.	.	.
=44	=44	=44	=44	=44	=44	=44	=44	=44	=44
8d\L	.	8a\L	.	8ff#\L	.	8A\	Sem-	8ff#\	Sem-
8A\	.	8cc#\	.	8ee\J	.	8c#\	-per	8ee\	-per
8c#\	.	8ee\	.	16a\LL	.	8c#\	et	8ee\	et
.	.	.	.	16cc#\	.	.	.	.	.
8A\J	.	8cc#\J	.	16ee\	.	8c#\	in	8ee\	in
.	.	.	.	16gg\JJ	.	.	.	.	.
8d\L	.	8a\L	.	8ff#\L	.	8A\	Sae-	8ff#\	Sae-
8A\	.	8cc#\	.	8ee\J	.	16c#\	-cu-	16ee\	-cu-
.	.	.	.	.	.	16c#\	-la	16ee\	-la
8c#\	.	8ee\	.	16a\LL	.	8c#\	Sae-	8ee\	Sae-
.	.	.	.	16cc#\	.	.	.	.	.
8A\J	.	8cc#\J	.	16ee\	.	8c#\	-cu-	8ee\	-cu-
.	.	.	.	16gg\JJ	.	.	.	.	.
!	!	!	!	!	!	!	!	!LO:LB:g=original	!
=45	=45	=45	=45	=45	=45	=45	=45	=45	=45
*	*	*	*	*Xtuplet	*	*	*	*	*
!LO:TX:a:t=P:problem:mixed beam	!	!	!	!	!	!	!	!	!
8D\L	.	8a\	.	24ff#\LL	.	8d\	-lo-	8ff#\	-lo-
.	.	.	.	24gg\	.	.	.	.	.
.	.	.	.	24aa\JJ	.	.	.	.	.
8G\	.	4dd\	.	24bb\LL	.	8e\	-rum	8ff#\	-rum
.	.	.	.	24aa\	.	.	.	.	.
.	.	.	.	24gg\JJ	.	.	.	.	.
8A\	.	.	.	8ff#\L	.	(8d\L	a-	(8ff#\L	a-
8AA/J	.	8cc#\	.	8eeT\J	.	8c#\J)	.	8ee\J)	.
4D\	.	4dd\	.	4dd\	.	4d\	-men	4dd\	-men
4A\	.	4cc#\	.	4ee\	.	4c#\	a-	4ee\	a-
=46	=46	=46	=46	=46	=46	=46	=46	=46	=46
4D\	.	4dd\	.	4ff#\	.	4d\	-men	4ff#\	-men
4r	.	4r	.	4r	.	4r	.	4r	.
2r	.	2r	.	2r	.	2r	.	2r	.
==	==	==;;	==	==	==	==	==	==	==
*-	*-	*-	*-	*-	*-	*-	*-	*-	*-
!!!system-decoration: [g1][g2]s5
!!!RDF**kern: > = above
!!!RDF**kern: < = below
!!!RDF**dynam: f = "for"
!!!RDF**dynam: p = "pia"
!!!ENC: Marta Lawrence
!!!END: 2020-09-09
!!!ENC: Marcin Jachim
!!!END: 2020-05-22
